X:553
L:1/8
Q:1/4=120
M:6/8
K:D
"^Briskly" E | D>ED FEF | A2 B d2 F | D>ED FEF | AFE E2 F | D>ED FEF | A2 B d2 d/e/ | fed BdB | 
 AFF F2 |: A | BdB BAF | A>BA AFA | BdB BAF | AFE E2 F/A/ | BdB BAF | A2 B d2 d/e/ | fed BdB | 
 AFF F2 |]

